X:1
T:T
T:Ah ah jeunes filles / Rondo d'Adolphe et Clara 
T:Rondo / HS.81.Vanpelt.315
T:Een speelmansboek uit Maastricht/Tongeren (1786-1824) 
T:BRON: Lusthof-der-muziek.blogspot.com: Handschrift van VanPelt (1786-1824)  / Transcriptie door Ad Kwakernaat (2015) 
T:Naar een origineel van Dalayrac Nicolas (1753-1809) 
T:Genoteerd door Van der Elst Johan
T:Genoteerd door Van der Elst Johan
T:Genoteerd door Van der Elst Johan
Z:Een speelmansboek uit Maastricht/Tongeren (1786-1824)
Z:Genoteerd door Van der Elst Johan
%%score { 1 2 }
L:1/8
Q:1/4=116
M:2/4
K:F
V:1 treble nm="Viool"
V:2 treble nm="Viool"
V:1
"^Allegretto" x2 || x4 | x4 | x4 | G2 z2 | x4 | x4 | x4 | G2 cc |: cA FA | cB GE | FF F/G/A/B/ | %12
 G2 cc | cA FA | cB GB | Ac B/A/B/G/ | F2 ff || f/e/d dd | d/c/B BB | A/G/B/A/ c/B/d/c/ | BA ff | %21
 f/e/d dd | d/c/B BB | cA G/A/B/G/ | F2 z2 | x4 | x4 | x4 | z2 Gc | =BG GB | dc z2 | x4 | z2 Gc | %33
 =BG GB | dc z2 | x4 | z2 cc | BB BB | A2 AA | fe dc | =B2 Ge | dG z e | d z z e | d z z e | %44
 d E2 c | Ac =Bd | c e2 c | Ac =Bd | c2 z2 | x4 | z F EF | GA cB | Ac d2 | dB G2 | GF EF | Gc BA | %56
 GG z2 | z c =Bf | ec =Bf | ec =Bf | e2 z2 | x4 | z A Gc | =B3 d |1 G2 cc :|2 G2 cc |: x4 | x4 | %68
 x4 | z2 AA | AE AG | FA d>f | e2 ^ce | d2 AA | AE AG | F2 AA | dd ee | ^c2 c z | x4 | z2 AA | %80
 dd ^cd | A2 z2 | x4 | z2 AA | dd ^cd | AA z2 | d3 d | d>G A>B | A4 | d3 d | d3 c | B>G A>B | A4 | %93
 D2 z A | dd ed | ^c2 z2 | dd e>d | !fermata!^c2 cc :| f4 | db/a/ g/f/e/d/ | c3 e | f2 z2 | f4 | %103
 db/a/ g/f/e/d/ | c3 e | f2 z2 | c2 e2 | f2 d2 | c3 c | F2 z2 | x4 | x4 | x4 | x4 | x4 | x4 | x4 | %117
 z4 |] %118
V:2
 c'c' || c'a fa | c'b ge | ff f/g/a/b/ | gc' c'c' | c'a fa | c'b gb | aa c'/=b/a/b/ | c'2 z2 |: %9
 cA FA | cB GE | FA FA | [EG] z cc | cA FA | cB G[FB] | [FA][Ac] [GB][EG] | F2 f2 || z2 d/e/f | %18
 z2 B/c/d | EG EG | [FA]2 f2 | z2 d/e/f | z2 B/c/d | [Ac][FA] [GB][EG] | Ff [Aa]2 | ae [Af]2 | %26
 [Af]b/a/ g/f/e/d/ | cf/c'/ g/f/g/e/ | f2 z2 | [DG=B]2 [DB]2 | [Ec]2 Gg | gf Gg | fe z2 | %33
 [DG=B]2 [DB]2 | [Ec]2 Gg | gf Gg | fe z2 | [GB]2 [GB]2 | [FA]f [Af][Af] | f/g/e/f/ d/e/c/d/ | %40
 =Bd [ce]2 | [=Bd][Bd] [ce]2 | [=Bd][Bd] [ce]2 | [=Bd][Bd] [ce]2 | [=Bd] z [ce] z | %45
 [Ac] z [=Bd] z | [Ece] z [Ge] z | [Ac] z [F=Bd] z | [Ec][Ac] [Bd]2 | [Bd][GB] G2 | %50
 [EG][DF] [CE][DF] | [EG][FA] [Ac]>[GB] | [FA][Ac] [Bd]2 | [Bd][GB] [EG]2 | [EG][DF] [CE][DF] | %55
 [EG][Ac] [GB][FA] | [EG]c [G=B]f | [Ge] z [=B,F] z | [CE] z [A,F] z | [CE] z e z | %60
 e/f/g/f/ e/f/d/e/ | c/d/e/f/ g/a/=b/c'/ | =b2 z2 | x4 |1 c' z z2 :|2 c' z f2 |: ae f2 | %67
 fb/a/ g/f/e/d/ | cf/a/ g/f/g/e/ | f2 z2 | a/^g/a/g/ a/e/a/=g/ | f/^c/d/c/ d/A/d/=c/ | %72
 B/e/f/e/ G/^c/e/c/ | [Fd]2 z2 | a/^g/a/g/ a/e/a/=g/ | f/^c/d/c/ d/A/B/F/ | [Fd]4 | [^ce]a [ce]2 | %78
 [^ce][ea] [df]2 | [df][Af] [Ge][Fd] | [Af][Af] [Ge][Fd] | ^ca [ce]2 | [^ce]a [df]2 | %83
 [df][Af] [Ge][Fd] | [Af][Af] [Ge][Fd] | [E^c]2 A/d/A/d/ | B/d/B/d/ ^F/d/F/d/ | G[Gd] z [Ge] | %88
 z [Fd] z [E^c] | [Fd]2 A/d/A/d/ | B/d/B/d/ ^F/d/F/d/ | G/d/G/d/ e/f/g/e/ | d/e/f/e/ c/d/e/c/ | %93
 d2 z2 | [Gd]2 z2 | [E^c]2 z2 | [Ed]2 z2 | !fermata![E^c]2 x2 :| ae f2 | fb/a/ g/f/e/d/ | %100
 cf/a/ g/f/g/e/ | ff [Aa]2 | [Aa]e f2 | fb/a/ g/f/e/d/ | cf/a/ g/f/g/e/ | f/A/f/A/ b/d'/b/d'/ | %106
 a/c'/a/c'/ e/g/e/g/ | f/a/f/a/ b/d'/b/d'/ | a/c'/a/c'/ e/g/e/g/ | ff/g/ a/b/c'/d'/ | %110
 c'f/g/ a/b/c'/d'/ | c'f/g/ a/b/c'/d'/ | %112
"_BRON: Alamire uitgave \"Speelmansboek uit Maastricht\"\n vermeldt bij concordatie:\n              + Dalayrac Nicolas (1753-1809), \nAdolphe et Clara \n(1799)\n              + La Clé du Caveau (Paris, 4de ed., 1848): 1176" c'[Ge] [Ge][Ge] | %113
 [Af]2 z2 | [Af]2 [Af]2 | [Af]2 z2 | [A,F]2 [A,F]2 | [A,F]2 z2 |] %118

